!!!OTL: HOCH SOLL EWIG LEBEN
!!!ARE: Europa, Mitteleuropa, Deutschland
!!!SCT: F0710
!!!YEM: Copyright 1995, estate of Helmut Schaffrath.
**kern
*ICvox
*Ivox
*M6/8
*k[b-e-]
*B-:
=1
{4b-
8b-
4dd
8dd
=2
4.ff
4dd
8r}
=3
{4gg
8gg
8ff
8dd
8b-
=4
4ff
8ee-
4dd
8r}
=5
{4dd
8dd
8cc#
8bn
8cc#
=6
4dd
8dd
4ee-
8ee-}
=7
{4.dd
8ff
8ee-
8cc
=8
4.b-
4dd
8cc
=9
4b-
2r}
==
!!!AGN: Geselligkeits -, Trink - Lied
!!!ONB: ESAC (Essen Associative Code) Database: FINK
!!!AMT: compound duple
!!!AIN: vox
!!!EED: Helmut Schaffrath
!!!EEV: 1.0
*-
